X:37
T:Reel. JBu.37
O:England,South Yorkshire
S:Joshua Burnett’s MS,c1835,S.Yorkshire
M:C|
L:1/8
Q:1/2=80
R:reel
N:MS gives Key as “D” but “G” seems more probable
Z:vmp.R.Greig.2011
K:G
G2″Key Sig.D in MS”dB ec dB|G2dB AFDF|G2dBec dB|ecdB AFDF:|
|:GBEB GBEB|GBEB AFDF|GBEB GBEB|ecdB AFDF:|

